suite-common/icons/assets/icons/change.svg

<svg xmlns="http://www.w3.org/2000/svg" xml:space="preserve" fill="none" viewBox="0 0 16 16">
  <path fill="#000" fill-rule="evenodd" d="M1.808 3.29a.734.734 0 0 0 .036 1.428c.086.019.796.029 2.044.029H5.8L7.417 7.98c1.814 3.629 1.699 3.429 2.097 3.627l.229.113 1.225.008 1.225.008-.398.405c-.467.476-.527.575-.525.859.001.22.045.337.187.495a.7.7 0 0 0 .543.238c.328 0 .341-.01 1.537-1.208q1.071-1.071 1.133-1.192a.86.86 0 0 0 0-.666q-.062-.12-1.133-1.192C12.341 8.277 12.328 8.267 12 8.267q-.328 0-.543.238A.64.64 0 0 0 11.27 9c-.002.284.058.383.526.86l.399.407h-1.982L8.61 7.06c-.881-1.764-1.644-3.263-1.695-3.332-.102-.141-.379-.336-.582-.412-.125-.046-.26-.05-2.266-.055-1.668-.004-2.161.002-2.259.029m7.493 0a.76.76 0 0 0-.5.452c-.046.123-.033.443.023.567a.83.83 0 0 0 .374.368c.122.056.131.056 2.549.056h2.426l.152-.074A.69.69 0 0 0 14.73 4c0-.3-.141-.529-.405-.659l-.152-.074-2.373-.006c-1.859-.004-2.401.003-2.499.029"/>
</svg>

<svg xmlns="http://www.w3.org/2000/svg" xml:space="preserve" fill="none" viewBox="0 0 16 16"><path d="M1.808 3.290 C 1.534 3.365,1.338 3.575,1.279 3.857 C 1.198 4.246,1.453 4.634,1.844 4.718 C 1.930 4.737,2.640 4.747,3.888 4.747 L 5.800 4.747 7.417 7.980 C 9.231 11.609,9.116 11.409,9.514 11.607 L 9.743 11.720 10.968 11.728 L 12.193 11.736 11.795 12.141 C 11.328 12.617,11.268 12.716,11.270 13.000 C 11.271 13.220,11.315 13.337,11.457 13.495 C 11.600 13.653,11.782 13.733,12.000 13.733 C 12.328 13.733,12.341 13.723,13.537 12.525 C 14.251 11.811,14.629 11.413,14.670 11.333 C 14.759 11.162,14.759 10.838,14.670 10.667 C 14.629 10.587,14.251 10.189,13.537 9.475 C 12.341 8.277,12.328 8.267,12.000 8.267 C 11.782 8.267,11.600 8.347,11.457 8.505 C 11.315 8.663,11.271 8.780,11.270 9.000 C 11.268 9.284,11.328 9.383,11.796 9.860 L 12.195 10.267 11.204 10.267 L 10.213 10.267 8.610 7.060 C 7.729 5.296,6.966 3.797,6.915 3.728 C 6.813 3.587,6.536 3.392,6.333 3.316 C 6.208 3.270,6.073 3.266,4.067 3.261 C 2.399 3.257,1.906 3.263,1.808 3.290 M9.301 3.290 C 9.077 3.351,8.882 3.528,8.801 3.742 C 8.755 3.865,8.768 4.185,8.824 4.309 C 8.889 4.453,9.045 4.606,9.198 4.677 C 9.320 4.733,9.329 4.733,11.747 4.733 L 14.173 4.733 14.325 4.659 C 14.589 4.529,14.730 4.300,14.730 4.000 C 14.730 3.700,14.589 3.471,14.325 3.341 L 14.173 3.267 11.800 3.261 C 9.941 3.257,9.399 3.264,9.301 3.290 " stroke="none" fill-rule="evenodd" fill="black"></path></svg>
